resources/haticons/SVG/robot.svg

<svg height="24" viewBox="0 0 24 24" width="24" xmlns="http://www.w3.org/2000/svg"><path d="m14.961 11.221v-1.558h-5.922v1.558zm-7.48-3.117h9.039c.935 0 1.558-.623 1.558-1.558v-4.364c0-.935-.623-1.558-1.558-1.558h-9.039c-.935 0-1.558.623-1.558 1.558v4.364c0 .935.623 1.558 1.558 1.558zm0-5.922h9.039v4.364h-9.039zm14.961 12.156h-1.558v1.247h1.558zm-9.039-9.039h1.558v-1.558h-1.558zm-4.364 0h1.558v-1.558h-1.558zm-7.481 14.961c-.935 0-1.558.623-1.558 1.558s.623 1.558 1.558 1.558c.623-.312 1.558-.935 1.558-1.558s-.935-1.558-1.558-1.558zm20.884 0c-.935 0-1.558.623-1.558 1.558s.623 1.558 1.558 1.558 1.558-.623 1.558-1.558-.623-1.558-1.558-1.558zm-1.559-3.117v1.558h3.117v-1.558zm-20.883 1.558h3.117v-1.558h-3.117zm18.078-5.922h-12.156c-.935 0-1.558.623-1.558 1.558v7.481c0 .935.623 1.558 1.558 1.558h11.844c.935-.312 1.558-.935 1.558-1.558v-7.481c0-.935-.623-1.558-1.247-1.558zm-16.52 2.805h1.558v-1.247h-1.558z"/></svg>

<svg height="24" width="24" xmlns="http://www.w3.org/2000/svg"><path d="M14.961 11.221V9.663H9.039v1.558zm-7.48-3.117h9.039c.935 0 1.558-.623 1.558-1.558V2.182c0-.935-.623-1.558-1.558-1.558H7.481c-.935 0-1.558.623-1.558 1.558v4.364c0 .935.623 1.558 1.558 1.558zm0-5.922h9.039v4.364H7.481zm14.961 12.156h-1.558v1.247h1.558zm-9.039-9.039h1.558V3.741h-1.558zm-4.364 0h1.558V3.741H9.039zM1.558 20.26C.623 20.26 0 20.883 0 21.818s.623 1.558 1.558 1.558c.623-.312 1.558-.935 1.558-1.558s-.935-1.558-1.558-1.558zm20.884 0c-.935 0-1.558.623-1.558 1.558s.623 1.558 1.558 1.558S24 22.753 24 21.818s-.623-1.558-1.558-1.558zm-1.559-3.117v1.558H24v-1.558zM0 18.701h3.117v-1.558H0zm18.078-5.922H5.922c-.935 0-1.558.623-1.558 1.558v7.481c0 .935.623 1.558 1.558 1.558h11.844c.935-.312 1.558-.935 1.558-1.558v-7.481c0-.935-.623-1.558-1.247-1.558zm-16.52 2.805h1.558v-1.247H1.558z"/></svg>
